mono-glyphs/cloud-w.svg

<svg xmlns="http://www.w3.org/2000/svg" width="1024" height="1024" fill="none" viewBox="0 0 1024 1024">
  <g clip-path="url(#a)">
    <path fill="#fff" d="M205.5 864c-28 0-54.5-5.833-79.5-17.5s-46.917-27.25-65.75-46.75-33.667-42-44.5-67.5C4.917 706.75-.5 680.167-.5 652.5-.5 624.167 4.333 597 14 571s23.25-49.083 40.75-69.25 38.417-36.5 62.75-49S168.667 433.333 198 432l16-.5c3.667-41 13.5-78.167 29.5-111.5s37-61.917 63-85.75 56.417-42.167 91.25-55C432.583 166.417 470.5 160 511.5 160s78.917 6.5 113.75 19.5 65.25 31.333 91.25 55 47 52.167 63 85.5 25.833 70.5 29.5 111.5h8c29 0 56.083 5.917 81.25 17.75s47 27.75 65.5 47.75 33.083 43.083 43.75 69.25c10.67 26.167 16 53.417 16 81.75s-5.33 55.5-16 81.5c-10.667 26-25.25 49-43.75 69s-40.25 35.917-65.25 47.75c-25 11.833-52 17.75-81 17.75h-612Zm611-64c20.333 0 39.25-4.25 56.75-12.75s32.583-19.75 45.25-33.75c12.667-14 22.667-30.167 30-48.5 7.333-18.333 11-37.333 11-57 0-21.333-3.833-41.25-11.5-59.75s-18.25-34.667-31.75-48.5c-13.5-13.833-29.417-24.667-47.75-32.5-18.333-7.833-38.167-11.75-59.5-11.75-17.333 0-31.667-5.417-43-16.25-11.333-10.833-18.333-24.583-21-41.25a697.172 697.172 0 0 0-5.75-35c-2.167-11.333-5.417-22.833-9.75-34.5-8.667-24-20.25-45-34.75-63s-31.167-33.083-50-45.25c-18.833-12.167-39.5-21.25-62-27.25s-46.25-9-71.25-9-48.75 3-71.25 9-43.167 15-62 27-35.5 27-50 45-26.083 39-34.75 63c-4.333 11.667-7.583 23.167-9.75 34.5-2.167 11.333-4.083 23.167-5.75 35.5-2.667 19.667-10.417 34.167-23.25 43.5-12.833 9.333-28.75 14-47.75 14-20.333 0-39.25 4.25-56.75 12.75s-32.667 19.833-45.5 34C91.917 556.417 81.833 572.667 74.5 591c-7.333 18.333-11 37.333-11 57s3.667 38.667 11 57 17.333 34.5 30 48.5c12.667 14 27.75 25.25 45.25 33.75S186.167 800 206.5 800h610Z"/>
  </g>
  <defs>
    <clipPath id="a">
      <path fill="#fff" d="M0 0h1024v1024H0z"/>
    </clipPath>
  </defs>
</svg>

<svg width="1024" height="1024" viewBox="0 0 1024 1024" fill="none" xmlns="http://www.w3.org/2000/svg">
<g clip-path="url(#clip0_47_1339)">
<mask id="mask0_47_1339" style="mask-type:luminance" maskUnits="userSpaceOnUse" x="-1" y="160" width="1025" height="704">
<path d="M1023.5 160H-0.5V864H1023.5V160Z" fill="white"/>
</mask>
<g mask="url(#mask0_47_1339)">
<path d="M205.5 864C177.5 864 151 858.167 126 846.5C101 834.833 79.0833 819.25 60.25 799.75C41.4167 780.25 26.5833 757.75 15.75 732.25C4.91667 706.75 -0.5 680.167 -0.5 652.5C-0.5 624.167 4.33333 597 14 571C23.6667 545 37.25 521.917 54.75 501.75C72.25 481.583 93.1667 465.25 117.5 452.75C141.833 440.25 168.667 433.333 198 432L214 431.5C217.667 390.5 227.5 353.333 243.5 320C259.5 286.667 280.5 258.083 306.5 234.25C332.5 210.417 362.917 192.083 397.75 179.25C432.583 166.417 470.5 160 511.5 160C552.5 160 590.417 166.5 625.25 179.5C660.083 192.5 690.5 210.833 716.5 234.5C742.5 258.167 763.5 286.667 779.5 320C795.5 353.333 805.333 390.5 809 431.5H817C846 431.5 873.083 437.417 898.25 449.25C923.417 461.083 945.25 477 963.75 497C982.25 517 996.833 540.083 1007.5 566.25C1018.17 592.417 1023.5 619.667 1023.5 648C1023.5 676.333 1018.17 703.5 1007.5 729.5C996.833 755.5 982.25 778.5 963.75 798.5C945.25 818.5 923.5 834.417 898.5 846.25C873.5 858.083 846.5 864 817.5 864H205.5ZM816.5 800C836.833 800 855.75 795.75 873.25 787.25C890.75 778.75 905.833 767.5 918.5 753.5C931.167 739.5 941.167 723.333 948.5 705C955.833 686.667 959.5 667.667 959.5 648C959.5 626.667 955.667 606.75 948 588.25C940.333 569.75 929.75 553.583 916.25 539.75C902.75 525.917 886.833 515.083 868.5 507.25C850.167 499.417 830.333 495.5 809 495.5C791.667 495.5 777.333 490.083 766 479.25C754.667 468.417 747.667 454.667 745 438C743.333 426 741.417 414.333 739.25 403C737.083 391.667 733.833 380.167 729.5 368.5C720.833 344.5 709.25 323.5 694.75 305.5C680.25 287.5 663.583 272.417 644.75 260.25C625.917 248.083 605.25 239 582.75 233C560.25 227 536.5 224 511.5 224C486.5 224 462.75 227 440.25 233C417.75 239 397.083 248 378.25 260C359.417 272 342.75 287 328.25 305C313.75 323 302.167 344 293.5 368C289.167 379.667 285.917 391.167 283.75 402.5C281.583 413.833 279.667 425.667 278 438C275.333 457.667 267.583 472.167 254.75 481.5C241.917 490.833 226 495.5 207 495.5C186.667 495.5 167.75 499.75 150.25 508.25C132.75 516.75 117.583 528.083 104.75 542.25C91.9167 556.417 81.8333 572.667 74.5 591C67.1667 609.333 63.5 628.333 63.5 648C63.5 667.667 67.1667 686.667 74.5 705C81.8333 723.333 91.8333 739.5 104.5 753.5C117.167 767.5 132.25 778.75 149.75 787.25C167.25 795.75 186.167 800 206.5 800H816.5Z" fill="white"/>
</g>
</g>
<defs>
<clipPath id="clip0_47_1339">
<rect width="1024" height="1024" fill="white"/>
</clipPath>
</defs>
</svg>
